chat-plus.svg

<svg fill="currentColor" viewBox="0 0 24 24"><path d="M18 14h2v3h3v2h-3v3h-2v-3h-3v-2h3zM12 3c5.5 0 10 3.58 10 8 0 .58-.08 1.14-.22 1.68A6.005 6.005 0 0 0 13 18l.08.95L12 19c-1.24 0-2.43-.18-3.53-.5C5.55 21 2 21 2 21c2.33-2.33 2.7-3.9 2.75-4.5C3.05 15.07 2 13.14 2 11c0-4.42 4.5-8 10-8"/></svg>

<svg  viewBox="0 0 24 24" fill="currentColor"><path  d="M18 14H20V17H23V19H20V22H18V19H15V17H18V14M12 3C17.5 3 22 6.58 22 11C22 11.58 21.92 12.14 21.78 12.68C20.95 12.25 20 12 19 12C15.69 12 13 14.69 13 18L13.08 18.95L12 19C10.76 19 9.57 18.82 8.47 18.5C5.55 21 2 21 2 21C4.33 18.67 4.7 17.1 4.75 16.5C3.05 15.07 2 13.14 2 11C2 6.58 6.5 3 12 3Z"/></svg>
